X:1
T:James Gibb editions
T:Lord of the harvest, Thee we hail (I) - Barnby
%%score [ ( 1 2 ) ( 3 4 ) ]
L:1/8
Q:1/4=176
M:4/2
K:F
V:1 treble nm="Midi_74"
V:2 treble 
V:3 bass nm="Midi_74"
V:4 bass 
V:1
"^88. 88. 88""^Lord of the harvest, Thee we hail (I)""^Joseph Barnby\n(1838-96)" z2"^John Hampden Gurney\n(1802-62)" A2 A2 B2 | %1
 c4 A4 d4 d4 | c8 || z2 A2 A2 B2 | c4 A4 d4 d4 | c12 || G4 | B6 B2 A4 c4 | B4 A4 G4 || G4 | %10
 B6 B2 A4 c4 | c4 =B4 c4 || c4 | d6 d2 d4 c4 | d6 d2 d4 || c4 | B4 A4"^1" G4 F4 | F8 E8 | F8 || %19
 B8 A8 |] %20
V:2
 z2 F2 F2 F2 | F4 F4 F4 F4 | F8 || z2 F2 F2 F2 | G4 F4 F4 F4 | E12 || E4 | F4 G4 F4 A4 | %8
 F4 F4 E4 || E4 | F4 G4 F4 G4 | A4 G4 G4 || A4 | B6 B2 B4 A4 | B6 B2 B4 || G4 | (F2 G2) F4 F4 D4 | %17
 D8 C8 | C8 || D8 C8 |] %20
V:3
 z2 C2 C2 C2 | C4 C4 B,4 B,4 | A,8 || z2 C2 C2 D2 | C4 F,4 A,4 B,4 | G,12 || E4 | D4 C4 C4 C4 | %8
 D4 C4 C4 || %9
"^1 Lord of the harvest, Thee we hail!\nThine ancient promise doth not fail;\nThe varying seasons haste their round;\nWith goodness all our years are crowned;\nOur thanks we pay,\nThis holy day,\nOh, let our hearts in tune be found.\n\n2 When spring doth wake the sound of mirth,\nWhen summer warms the fruitful earth,\nWhen autumn yields its ripened grain,\nOr winter sweeps the naked plain,\nWe still do sing\nTo Thee our King;\nThrough all their changes Thou dost reign." C4 | %10
 B,4 G,4 C4 C4 | F4 D4 E4 || _E4 | D6 D2 F4 F4 | %14
 F6"^3 But chiefly when Thy liberal hand\nBestows new plenty o'er the land,\nWhen sounds of music fill the air,\nAs homeward all their treasures bear;\nWe too will raise\nOur hymn of praise,\nFor we Thy common bounties share.\n\n4 Lord of harvest, all is Thine:\nThe rains that fall, the suns that shine,\nThe seed once hidden in the ground,\nThe skill that makes our fruits abound:\nNew every year,\nThy gifts appear;\nNew praises from our lips shall sound." F2 F4 || %15
 !courtesy!=E4 | D4 C4 B,4 A,4 | G,8 G,8 | A,8 || F,8 F,8 |] %20
V:4
 z2 F,2 F,2 G,2 | A,4 F,4 B,,4 D,4 | F,8 || z2 F,2 F,2 D,2 | E,4 F,4 D,4 B,,4 | C,12 || C,4 | %7
 D,4 E,4 F,4- E,4 | D,2 E,2 F,4 C,4 || C,4 | D,4 E,4 F,4 E,4 | F,4 G,4 C,4 || F,4 | %13
 B,,6 B,,2 D,4 F,4 | B,6 B,2 B,,4 || C,4 | (D,2 E,2) F,4 C,4 D,4 | B,,8 C,8 | F,8 || B,,8 F,8 |] %20

